**kern
*staff1
*solos[solo1]
=1-
*clefG2
*k[]
*F:
*M4/4
*>solo1
{8g/
16r
16cc\
48b-\LLL
48cc\
48b-\JJJ
16a/LL
16g/
16f/JJ
16e-/LL
16G/
16B-/
16d/JJ
16c/LL
16B-/JJ
32A/LLL
32c/
32e-/
32g/JJJ
=2
16f/LL
16d/
16e-/
[16f/J
8.f/]
16d/Jk
24c/LL
24d/
24c/JJ
16B-/LL
[16d/JJ
16d/LL]
16B-/JJ
32B-/LLL
32A/
32B-/
32c/JJJ
=3
4d-/}
8r
{32g/LLL
32a/
32b-/
32cc/JJJ
32dd-\LLL2E-:dom
32cc\
32b-\
32a\JJJ
32g/LLL
32g-/
32f/
32e-/JJJ
32d-/LLL
32c/
32G/
32A/JJJ
32B-/LLL
32d-/
32c/
32B-/JJJ
=4
32A/LLL
32c/
32d/
32e/JJJ
32g/LLL
32e/
32f/
32g/JJJ
16a/LL
16cc/JJ
32b\LLL
32b-\J
16a\JJ
32b-/LLL4:Dmin
64a/L
64a-/J
32g/
[32an/JJJ
32a/]
48a-/LLL
48g/
48g-/JJJ
32f/}
4r
=5
8r
{32d/LLL
32e/
32f/
32g/JJJ
32a\LLL
32b-\
32cc\
32dd\
64ee\L
64dd\
64cc#\
64dd\
64ee\
64ff\
64ff#\
64gg\JJJJ}
16r
8.r
{16ff#\LL
16a\
16bn\
[16ee\JJ
=6
8ee\]
48dd\LLL
48ee\
48dd\JJJ
16dd-\
16cc\LL
16a\
16b\
32dd-\L
32b\JJJ
16a/LL
16f/J
8d/J
48g/LLL
48a/
48g/JJJ
16f/LL
16e/
16d/JJ
=7
8f/L
16d/L
16c/JJ
16B-/LK
8.G/J}
16r
{32a/LLL
32b-/JJJ
32cc/LLL
32b-/
32a/
32g/JJJ
32f#/LLL2.D:dom:9+
32a/
32e/
32c/JJJ
32d/LLL
32e-/
32c/
32c#/JJJ
=8
32d/LLL
32B-/
32G/
32A/JJJ
32c/
48A/LLL
48B-/
48d/JJJ
32f/
48a\LLL
48b-\
48bn\JJJ
32cc/LLL
32a/JJJ
32b-/LLL
32g/JJJ}
16r
8.r
{48a/LLL
48b-/
48a/JJJ
20e-/LL
20d/
20Bn/
20c/
20B-/JJ
=9
8.A/L
16c/Jk
48g/LLL
48a/
48g/JJJ
16f/LL
16e/
16f/JJ
16a/LK
8.cc/J}
4r
=10||
8.r
{16a/
48b-\LLL
48cc\
48b-\JJJ
16a/LL
16g/
16f/JJ
16e/LL
16d/
16c#/
16F/JJ
16G/LL
16B-/
16A/
16G/JJ
=11
16F#/LL
16A/
16c/
[16b/J
8.b/]
16a/Jk
12b/L
12a/
[12e/J
8e/]
48g/LLL
48a/
48g/JJJ
16f#/
=12
16e/LL
16A/
16c/
[16e-/JJ
16e-/LL]
16c/J
[8d/J
8d/]}
8r
12r
{12d/L
12f/J
=13
8.a/L
16a/Jk
12f/L
12d/
12f/J
8a/L
8a/J
8r
8A/
=14
8.B-/L
16d-/Jk
12f/L
12g/
12a/J
[4b-\
16b-/LL]
16a/J
[8f/J
=15
2f/]}
16r
{16c/
48g/LLL
48a/
48g/JJJ
16f/
16e-/LL
16c/
16B-/
16F/JJ
=16
8.A/L
[16c/Jk
2c/]}
4r
==
*-
